X:232
T: Nigu sifan
N: C1717
O: China,Hunan
S: Zhongguo minge xuan, 246]
R: Xiaodiao. Nann qing]
M: 2/4
L: 1/16
K: E
G2C2E2C2 | B2GBc2e2 | B2BBc2BG | GBE2F4 |
G4c2e2 | G2B2GBG2 | E2CEG2E2 | CEC6 |
G2C2E2C2 | B2e2c3e | B4c2BG | GBE2F4 |
G2G2c2e2 | G2B2GBG2 | E2CEG2E2 | C3EG2E2 | C8

@@@ Tune index: 6787
